X: 1
T: Mill Quay, The
M: 4/4
L: 1/8
R: hornpipe
K: Dmaj
|:de|fdBd AdBd|Adcd e2de|fdBd AdBd|gfaf d2de|
fdBd AdBd|Adcd e2de|fdBd AdBd|gfaf d2:||
|:dc|BGBGd2cB|AFAF d2cB|Adcd Bcde|fagf e2fa|
bgbg b2ag|afaf a2gf|gece dcBc|d2 dc d2:||
|:FG|AFDF EFGA|Bcde d2FG|AFDF EFGB|AB/A/ cB A2 FG|
AFDF EFGA|Bcde f2ed|BGEG AFDF|EF/E/ DC D2:||
|:AB/c/|d2ef gfed|cABc d2cd|eAfA gAfA|edcB A2AB/c/|
d2ef gfed|cABc d2cd|eAfA gAfA|edce d2:||
|:FG|A2Bc dDFG|A2Bc d2FG|A2Bc dDFG|AB/A/ dF E2FG|
A2Bc dDFG|A2Bc d2cd|eAfA gAfA|ef/e/ dc d2:||
